X: 1015
T:The Foggy Dew (A6)
N:page A6
N: hexatonic
N: matches 337
R: air
M:4/4
K:Em
Bd|"Em"e2 dB e2 dB|"Am"A2 B2 "D"D2 EF| "Em"GB AG E2 D2 | "Em"E6 :|
F2|"G"G3B "D"d2 cB|"Am"A2 A2 "G"B2 GA| B2 gf ed Bd|"Em"e6 dB|
"Em"e2 dB e2 dB|"Am"A2 B2 "D"D2 EF|"Em"GB AG E2 ED|E4 || D2|
